;Generated by Cura LulzBot Edition GCodeWriter Version: 3.6.40
;FLAVOR:Marlin
;TIME:342
;Filament used: 0.0639497m
;Layer height: 0.25
;Generated with Cura_SteamEngine 3.6.40-win10
M82 ;absolute extrusion mode
;This G-Code has been generated specifically for the LulzBot TAZ 6 with standard extruder
;
;The following lines can be uncommented for printer specific fine tuning
;More information can be found at https://marlinfw.org/meta/gcode/
;
;M92 E833                 ;Set Axis Steps-per-unit
;M301 P21.0 I1.78 D61.93  ;Set Hotend PID
;M906 E135                ;Digipot Motor Current ((750mA-750)/5+135) = 135
;M206 Y4                  ;Set Home Offsets (default:4)
;
M73 P0 ; clear GLCD progress bar
M75 ; start GLCD timer
G26 ; clear potential 'probe fail' condition
M107 ; disable fans
; REMOVED: < M420 S0 > which disabled the leveling matrix 
G90 ; absolute positioning
M82 ; set extruder to absolute mode
G92 E0 ; set extruder position to 0
M140 S60.0 ; start bed heating up
M117 Preparing NO leveling...; Let the user know we're on it 
G1 E-2 F100 ; retract filament 
G28 XY ; home X and Y 
G1 X-19 Y258 F1000 ; move to safe homing position 
G28 Z ; home Z 
G1 Z10 ; raise extruder to clear any obstacles 
G92 Z8.5; apply z-offset 
G1 X0 Y0 F5000 ; move to starting point 
M117 Heating... ; progress indicator on LCD 
M109 R210 ; wait for extruder to reach printing temp
M190 R60.0 ; wait for bed to reach printing temp
G1 Z2 E0 F75 ; prime tiny bit of filament into the nozzle
M117 TAZ6 Fast Printing... ; progress indicator message on LCD 

M221 S100 T0
G92 E0
G1 F600 E-1.75
;LAYER_COUNT:37
;LAYER:0
M107
G0 F2625 X133.158 Y133.114 Z0.425
;TYPE:SKIRT
G1 F600 E0
G1 F879.7 X133.494 Y132.8 E0.01532
G1 X133.922 Y132.434 E0.03408
G1 X134.671 Y131.899 E0.06474
G1 X135.502 Y131.41 E0.09686
G1 X136.367 Y131.003 E0.1287
G1 X136.965 Y130.785 E0.1499
G1 X137.586 Y130.601 E0.17148
G1 X138.225 Y130.495 E0.19305
G1 X138.754 Y130.467 E0.2107
G1 X141.21 Y130.463 E0.29251
G1 X141.857 Y130.502 E0.3141
G1 X142.494 Y130.62 E0.33568
G1 X143.054 Y130.794 E0.35521
G1 X143.7 Y131.035 E0.37818
G1 X144.292 Y131.299 E0.39977
G1 X144.815 Y131.611 E0.42006
G1 X146.037 Y132.441 E0.46926
G1 X146.549 Y132.837 E0.49082
G1 X147.009 Y133.294 E0.51242
G1 X147.409 Y133.803 E0.53399
G1 X147.626 Y134.145 E0.54748
G1 X148.844 Y136.24 E0.6282
G1 X149.134 Y136.819 E0.64977
G1 X149.351 Y137.43 E0.67137
G1 X149.481 Y137.999 E0.69081
G1 X149.629 Y138.869 E0.72021
G1 X149.698 Y139.513 E0.74178
G1 X149.679 Y140.252 E0.76641
G1 X149.551 Y141.581 E0.81088
G1 X149.449 Y142.221 E0.83247
G1 X149.269 Y142.843 E0.85404
G1 X148.872 Y143.702 E0.88556
G1 X147.644 Y145.83 E0.9674
G1 X147.286 Y146.37 E0.98898
G1 X146.865 Y146.862 E1.01055
G1 X146.129 Y147.492 E1.04282
G1 X145.015 Y148.28 E1.08828
G1 X144.464 Y148.621 E1.10986
G1 X143.858 Y148.898 E1.13206
G1 X143.118 Y149.181 E1.15845
G1 X142.5 Y149.374 E1.18001
G1 X141.863 Y149.49 E1.20158
G1 X141.26 Y149.527 E1.22171
G1 X138.79 Y149.535 E1.30398
G1 X138.143 Y149.497 E1.32557
G1 X137.506 Y149.38 E1.34714
G1 X136.871 Y149.178 E1.36934
G1 X136.13 Y148.89 E1.39582
G1 X135.287 Y148.472 E1.42717
G1 X134.573 Y148.034 E1.45507
G1 X133.912 Y147.554 E1.48228
G1 X133.492 Y147.196 E1.50066
G1 X133.026 Y146.747 E1.52222
G1 X132.619 Y146.243 E1.5438
G1 X132.353 Y145.828 E1.56022
G1 X131.152 Y143.75 E1.64017
G1 X130.863 Y143.17 E1.66175
G1 X130.647 Y142.559 E1.68334
G1 X130.554 Y142.177 E1.69643
G1 X130.423 Y141.538 E1.71816
G1 X130.332 Y140.897 E1.73973
G1 X130.319 Y140.307 E1.75939
G1 X130.361 Y139.059 E1.80098
G1 X130.423 Y138.415 E1.82253
G1 X130.563 Y137.782 E1.84413
G1 X130.668 Y137.46 E1.85541
G1 X130.878 Y136.876 E1.87608
G1 X131.285 Y136.003 E1.90817
G1 X132.373 Y134.141 E1.98
G1 X132.734 Y133.603 E2.00158
G1 X133.158 Y133.114 E2.02314
G0 F2625 X133.557 Y133.421
G1 F879.7 X133.819 Y133.18 E2.035
G1 X134.247 Y132.814 E2.05376
G1 X134.925 Y132.33 E2.08151
G1 X135.756 Y131.841 E2.11363
G1 X136.538 Y131.472 E2.14243
G1 X137.136 Y131.254 E2.16363
G1 X137.727 Y131.081 E2.18414
G1 X138.336 Y130.986 E2.20468
G1 X138.755 Y130.967 E2.21865
G1 X141.211 Y130.963 E2.30046
G1 X141.826 Y131.002 E2.32098
G1 X142.431 Y131.12 E2.34152
G1 X142.879 Y131.263 E2.35718
G1 X143.525 Y131.504 E2.38015
G1 X144.087 Y131.756 E2.40066
G1 X144.534 Y132.025 E2.41804
G1 X145.756 Y132.855 E2.46725
G1 X146.242 Y133.233 E2.48776
G1 X146.675 Y133.671 E2.50827
G1 X147.193 Y134.397 E2.53798
G1 X148.411 Y136.492 E2.6187
G1 X148.686 Y137.043 E2.63922
G1 X148.887 Y137.626 E2.65976
G1 X148.988 Y138.082 E2.67532
G1 X149.136 Y138.952 E2.70471
G1 X149.199 Y139.565 E2.72524
G1 X149.181 Y140.204 E2.74653
G1 X149.053 Y141.533 E2.79101
G1 X148.954 Y142.142 E2.81156
G1 X148.778 Y142.732 E2.83207
G1 X148.439 Y143.452 E2.85858
G1 X147.211 Y145.58 E2.94042
G1 X146.869 Y146.093 E2.96096
G1 X146.464 Y146.557 E2.98147
G1 X145.84 Y147.084 E3.00868
G1 X144.726 Y147.872 E3.05413
G1 X144.201 Y148.194 E3.07465
G1 X143.68 Y148.431 E3.09371
G1 X142.94 Y148.714 E3.1201
G1 X142.351 Y148.896 E3.14064
G1 X141.744 Y149.001 E3.16116
G1 X141.258 Y149.027 E3.17737
G1 X138.788 Y149.035 E3.25965
G1 X138.173 Y148.997 E3.28017
G1 X137.569 Y148.88 E3.30066
G1 X137.052 Y148.712 E3.31877
G1 X136.311 Y148.424 E3.34525
G1 X135.548 Y148.046 E3.37362
G1 X134.834 Y147.608 E3.40152
G1 X134.237 Y147.174 E3.42611
G1 X133.817 Y146.816 E3.44449
G1 X133.375 Y146.387 E3.46501
G1 X132.992 Y145.904 E3.48554
G1 X132.785 Y145.578 E3.4984
G1 X131.584 Y143.5 E3.57835
G1 X131.311 Y142.948 E3.59887
G1 X131.044 Y142.077 E3.62921
G1 X130.913 Y141.438 E3.65094
G1 X130.828 Y140.828 E3.67145
G1 X130.819 Y140.324 E3.68825
G1 X130.861 Y139.076 E3.72984
G1 X130.921 Y138.463 E3.75036
G1 X131.138 Y137.629 E3.77906
G1 X131.348 Y137.045 E3.79974
G1 X131.717 Y136.256 E3.82875
G1 X132.805 Y134.394 E3.90059
G1 X133.149 Y133.883 E3.92111
G1 X133.557 Y133.421 E3.94164
G0 F2625 X134.144 Y133.56
G1 F879.7 X134.572 Y133.194 E3.9604
G1 X135.179 Y132.761 E3.98523
G1 X136.01 Y132.272 E4.01735
G1 X136.709 Y131.942 E4.0431
G1 X137.307 Y131.724 E4.0643
G1 X137.867 Y131.562 E4.08372
G1 X138.444 Y131.479 E4.10314
G1 X138.756 Y131.467 E4.11354
G1 X141.212 Y131.463 E4.19535
G1 X141.794 Y131.502 E4.21478
G1 X142.364 Y131.62 E4.23417
G1 X142.705 Y131.731 E4.24611
G1 X143.351 Y131.972 E4.26908
G1 X143.881 Y132.213 E4.28847
G1 X144.253 Y132.438 E4.30296
G1 X145.475 Y133.268 E4.35216
G1 X145.933 Y133.628 E4.37157
G1 X146.338 Y134.047 E4.39098
G1 X146.761 Y134.648 E4.41546
G1 X147.979 Y136.743 E4.49618
G1 X148.237 Y137.266 E4.51561
G1 X148.421 Y137.819 E4.53502
G1 X148.495 Y138.166 E4.54684
G1 X148.643 Y139.036 E4.57624
G1 X148.701 Y139.616 E4.59565
G1 X148.683 Y140.156 E4.61365
G1 X148.555 Y141.485 E4.65812
G1 X148.46 Y142.06 E4.67754
G1 X148.287 Y142.617 E4.69697
G1 X148.006 Y143.202 E4.71858
G1 X146.778 Y145.33 E4.80042
G1 X146.453 Y145.814 E4.81984
G1 X146.065 Y146.248 E4.83924
G1 X145.551 Y146.676 E4.86152
G1 X144.437 Y147.464 E4.90697
G1 X143.94 Y147.767 E4.92636
G1 X143.501 Y147.964 E4.94239
G1 X142.761 Y148.247 E4.96878
G1 X142.204 Y148.417 E4.98818
G1 X141.628 Y148.509 E5.00761
G1 X141.257 Y148.527 E5.01998
G1 X138.787 Y148.535 E5.10226
G1 X138.205 Y148.497 E5.12168
G1 X137.634 Y148.38 E5.1411
G1 X137.233 Y148.246 E5.15518
G1 X136.492 Y147.958 E5.18166
G1 X135.81 Y147.62 E5.20702
G1 X135.096 Y147.182 E5.23492
G1 X134.561 Y146.793 E5.25695
G1 X134.141 Y146.435 E5.27534
G1 X133.724 Y146.028 E5.29475
G1 X133.218 Y145.328 E5.32352
G1 X132.017 Y143.25 E5.40347
G1 X131.761 Y142.726 E5.42289
G1 X131.534 Y141.977 E5.44896
G1 X131.403 Y141.338 E5.47069
G1 X131.325 Y140.76 E5.49012
G1 X131.318 Y140.341 E5.50408
G1 X131.36 Y139.093 E5.54567
G1 X131.42 Y138.513 E5.5651
G1 X131.609 Y137.798 E5.58973
G1 X131.819 Y137.214 E5.6104
G1 X132.149 Y136.508 E5.63636
G1 X133.237 Y134.646 E5.7082
G1 X133.564 Y134.164 E5.7276
G1 X134.144 Y133.56 E5.75549
G0 F2625 X134.469 Y133.94
G1 F879.7 X134.897 Y133.574 E5.77425
G1 X135.432 Y133.192 E5.79615
G1 X136.263 Y132.703 E5.82827
G1 X136.881 Y132.412 E5.85102
G1 X137.479 Y132.194 E5.87222
G1 X138.005 Y132.044 E5.89044
G1 X138.757 Y131.967 E5.91562
G1 X141.213 Y131.963 E5.99743
G1 X141.759 Y132.002 E6.01567
G1 X142.53 Y132.2 E6.04218
G1 X143.176 Y132.441 E6.06515
G1 X143.673 Y132.669 E6.08337
G1 X143.972 Y132.852 E6.09504
G1 X145.194 Y133.682 E6.14425
G1 X145.623 Y134.022 E6.16248
G1 X145.998 Y134.42 E6.1807
G1 X146.329 Y134.899 E6.20009
G1 X147.547 Y136.994 E6.28082
G1 X147.787 Y137.486 E6.29905
G1 X148.002 Y138.25 E6.32549
G1 X148.15 Y139.12 E6.35488
G1 X148.202 Y139.665 E6.37312
G1 X148.186 Y140.109 E6.38792
G1 X148.058 Y141.438 E6.43239
G1 X147.966 Y141.977 E6.45061
G1 X147.796 Y142.497 E6.46883
G1 X147.573 Y142.952 E6.48571
G1 X146.345 Y145.08 E6.56755
G1 X146.038 Y145.533 E6.58578
G1 X145.667 Y145.936 E6.60403
G1 X145.263 Y146.267 E6.62142
G1 X144.149 Y147.055 E6.66688
G1 X143.68 Y147.338 E6.68512
G1 X143.323 Y147.497 E6.69814
G1 X142.583 Y147.78 E6.72453
G1 X142.058 Y147.937 E6.74278
G1 X141.255 Y148.027 E6.7697
G1 X138.785 Y148.035 E6.85198
G1 X138.239 Y147.997 E6.87021
G1 X137.704 Y147.88 E6.88845
G1 X137.415 Y147.78 E6.89864
G1 X136.674 Y147.492 E6.92512
G1 X136.071 Y147.193 E6.94754
G1 X135.357 Y146.755 E6.97544
G1 X134.885 Y146.413 E6.99486
G1 X134.465 Y146.055 E7.01324
G1 X134.076 Y145.67 E7.03147
G1 X133.651 Y145.077 E7.05577
G1 X132.45 Y142.999 E7.13572
G1 X132.212 Y142.507 E7.15393
G1 X132.023 Y141.876 E7.17587
G1 X131.892 Y141.237 E7.1976
G1 X131.822 Y140.694 E7.21583
G1 X131.818 Y140.358 E7.22703
G1 X131.86 Y139.11 E7.26862
G1 X131.918 Y138.566 E7.28685
G1 X132.079 Y137.967 E7.30751
G1 X132.289 Y137.383 E7.32818
G1 X132.58 Y136.76 E7.35108
G1 X133.668 Y134.898 E7.42292
G1 X133.978 Y134.447 E7.44115
G1 X134.469 Y133.94 E7.46466
G0 F2625 X134.794 Y134.32
G1 F879.7 X135.222 Y133.954 E7.48342
G1 X135.686 Y133.623 E7.5024
G1 X136.517 Y133.134 E7.53452
G1 X137.052 Y132.882 E7.55422
G1 X137.65 Y132.664 E7.57542
G1 X138.141 Y132.527 E7.5924
G1 X138.758 Y132.467 E7.61305
G1 X141.214 Y132.463 E7.69486
G1 X141.722 Y132.502 E7.71183
G1 X142.355 Y132.668 E7.73363
G1 X143.001 Y132.909 E7.7566
G1 X143.463 Y133.124 E7.77357
G1 X143.691 Y133.266 E7.78252
G1 X144.913 Y134.096 E7.83173
G1 X145.311 Y134.414 E7.8487
G1 X145.654 Y134.791 E7.86568
G1 X145.897 Y135.151 E7.88014
G1 X147.115 Y137.246 E7.96087
G1 X147.335 Y137.705 E7.97782
G1 X147.509 Y138.334 E7.99956
G1 X147.657 Y139.204 E8.02896
G1 X147.703 Y139.711 E8.04591
G1 X147.688 Y140.061 E8.05758
G1 X147.56 Y141.39 E8.10206
G1 X147.472 Y141.891 E8.119
G1 X147.306 Y142.373 E8.13598
G1 X147.14 Y142.702 E8.14826
G1 X145.912 Y144.83 E8.2301
G1 X145.623 Y145.25 E8.24708
G1 X145.273 Y145.62 E8.26405
G1 X144.974 Y145.859 E8.2768
G1 X143.86 Y146.647 E8.32225
G1 X143.422 Y146.908 E8.33923
G1 X143.144 Y147.03 E8.34935
G1 X142.404 Y147.313 E8.37574
G1 X141.915 Y147.457 E8.39272
G1 X141.254 Y147.527 E8.41486
G1 X138.784 Y147.535 E8.49713
G1 X138.275 Y147.497 E8.51414
G1 X137.596 Y147.314 E8.53756
G1 X136.855 Y147.026 E8.56404
G1 X136.333 Y146.767 E8.58345
G1 X135.619 Y146.329 E8.61136
G1 X135.21 Y146.032 E8.62819
G1 X134.79 Y145.674 E8.64658
G1 X134.429 Y145.314 E8.66356
G1 X134.084 Y144.827 E8.68344
G1 X132.883 Y142.749 E8.76339
G1 X132.664 Y142.29 E8.78033
G1 X132.513 Y141.776 E8.79817
G1 X132.382 Y141.137 E8.8199
G1 X132.319 Y140.631 E8.83689
G1 X132.318 Y140.375 E8.84541
G1 X132.36 Y139.127 E8.88701
G1 X132.417 Y138.62 E8.904
G1 X132.55 Y138.136 E8.92072
G1 X132.76 Y137.552 E8.9414
G1 X133.012 Y137.012 E8.96125
G1 X134.1 Y135.15 E9.03308
G1 X134.391 Y134.732 E9.05005
G1 X134.794 Y134.32 E9.06925
G1 F600 E7.31925
;MESH:
G0 F2625 X136.883 Y135.921
G0 X137.78 Y137.039
G0 X139.585 Y136.749
G0 X139.595 Y136.848
;TYPE:WALL-INNER
G1 F600 E9.06925
G1 F879.7 X139.331 Y136.894 E9.07817
G1 X139.135 Y136.951 E9.08497
G1 X138.996 Y136.992 E9.0898
G1 X138.687 Y137.12 E9.10094
G1 X138.408 Y137.266 E9.11143
G1 X138.169 Y137.42 E9.1209
G1 X137.944 Y137.596 E9.13041
G1 X137.781 Y137.749 E9.13786
G1 X137.735 Y137.792 E9.13996
G1 X137.548 Y138.004 E9.14938
G1 X137.383 Y138.226 E9.15859
G1 X137.281 Y138.386 E9.16491
G1 X137.147 Y138.632 E9.17424
G1 X137.034 Y138.897 E9.18384
G1 X136.949 Y139.168 E9.1933
G1 X136.94 Y139.208 E9.19466
G1 X136.886 Y139.445 E9.20276
G1 X136.849 Y139.728 E9.21227
G1 X136.837 Y140.012 E9.22174
G1 X136.852 Y140.287 E9.23091
G1 X136.874 Y140.472 E9.23712
G1 X136.925 Y140.743 E9.2463
G1 X136.939 Y140.791 E9.24797
G1 X137.003 Y141.016 E9.25576
G1 X137.102 Y141.267 E9.26475
G1 X137.217 Y141.508 E9.27364
G1 X137.352 Y141.729 E9.28227
G1 X137.494 Y141.928 E9.29041
G1 X137.656 Y142.124 E9.29888
G1 X137.782 Y142.252 E9.30486
G1 X137.829 Y142.3 E9.3071
G1 X137.965 Y142.42 E9.31314
G1 X138.159 Y142.571 E9.32133
G1 X138.366 Y142.709 E9.32962
G1 X138.586 Y142.831 E9.338
G1 X138.816 Y142.933 E9.34638
G1 X139.05 Y143.017 E9.35466
G1 X139.164 Y143.048 E9.3586
G1 X139.287 Y143.081 E9.36284
G1 X139.607 Y143.14 E9.37368
G1 X139.858 Y143.161 E9.38207
G1 X140.108 Y143.161 E9.3904
G1 X140.503 Y143.122 E9.40362
G1 X140.743 Y143.074 E9.41177
G1 X140.838 Y143.048 E9.41505
G1 X140.97 Y143.011 E9.41962
G1 X141.205 Y142.925 E9.42795
G1 X141.593 Y142.733 E9.44237
G1 X141.774 Y142.619 E9.4495
G1 X141.959 Y142.484 E9.45713
G1 X142.132 Y142.337 E9.46469
G1 X142.216 Y142.255 E9.4686
G1 X142.299 Y142.174 E9.47246
G1 X142.453 Y141.995 E9.48033
G1 X142.687 Y141.669 E9.4937
G1 X142.802 Y141.468 E9.50141
G1 X142.904 Y141.26 E9.50913
G1 X143.035 Y140.894 E9.52208
G1 X143.062 Y140.789 E9.52569
G1 X143.089 Y140.684 E9.5293
G1 X143.126 Y140.484 E9.53607
G1 X143.149 Y140.289 E9.54261
G1 X143.163 Y140.074 E9.54979
G1 X143.149 Y139.688 E9.56266
G1 X143.086 Y139.3 E9.57575
G1 X143.062 Y139.211 E9.57882
G1 X143.03 Y139.087 E9.58309
G1 X142.907 Y138.755 E9.59488
G1 X142.81 Y138.547 E9.60253
G1 X142.708 Y138.363 E9.60953
G1 X142.488 Y138.048 E9.62233
G1 X142.28 Y137.808 E9.63291
G1 X142.217 Y137.75 E9.63576
G1 X142.025 Y137.57 E9.64453
G1 X141.757 Y137.368 E9.65571
G1 X141.591 Y137.264 E9.66223
G1 X141.212 Y137.078 E9.6763
G1 X141.024 Y137.005 E9.68302
G1 X140.834 Y136.952 E9.68959
G1 X140.708 Y136.917 E9.69394
G1 X140.399 Y136.862 E9.7044
G1 X139.976 Y136.831 E9.71852
G1 X139.595 Y136.848 E9.73123
G0 F2625 X139.585 Y136.749
G0 X140.716 Y136.878
G0 X142.562 Y137.545
G0 X142.648 Y137.496
G1 F879.7 X142.691 Y137.57 E9.73401
G1 X142.847 Y137.84 E9.74322
G1 X143.038 Y138.172 E9.75337
G1 X143.144 Y138.355 E9.75877
G1 X143.258 Y138.552 E9.76475
G1 X143.433 Y138.854 E9.77486
G1 X143.497 Y138.965 E9.77898
G1 X143.627 Y139.189 E9.78761
G1 X143.658 Y139.328 E9.79235
G1 X143.694 Y139.58 E9.80083
G1 X143.711 Y139.761 E9.80689
G1 X143.719 Y139.931 E9.81255
G1 X143.709 Y140.262 E9.82358
G1 X143.696 Y140.415 E9.8287
G1 X143.657 Y140.674 E9.83742
G1 X143.628 Y140.809 E9.84202
G1 X143.497 Y141.035 E9.85073
G1 X143.443 Y141.129 E9.85423
G1 X143.252 Y141.461 E9.86551
G1 X143.136 Y141.661 E9.87156
G1 X143.021 Y141.861 E9.87747
G1 X142.821 Y142.207 E9.88837
G1 X142.705 Y142.407 E9.89539
G1 X142.647 Y142.507 E9.89912
G1 X142.515 Y142.736 E9.90793
G1 X142.418 Y142.826 E9.91233
G1 X142.207 Y142.992 E9.92128
G1 X141.896 Y143.2 E9.93374
G1 X141.616 Y143.351 E9.94434
G1 X141.403 Y143.446 E9.9521
G1 X141.212 Y143.517 E9.95889
G1 X141.112 Y143.547 E9.96237
G1 X140.842 Y143.547 E9.97136
G1 X140.743 Y143.547 E9.9745
G1 X140.503 Y143.547 E9.98168
G1 X140.108 Y143.547 E9.99235
G1 X139.858 Y143.547 E9.99878
G1 X139.607 Y143.547 E10.00541
G1 X139.287 Y143.547 E10.01471
G1 X139.159 Y143.547 E10.01883
G1 X138.887 Y143.547 E10.02789
G1 X138.549 Y143.426 E10.03985
G1 X138.271 Y143.292 E10.05013
G1 X138.099 Y143.197 E10.05667
G1 X137.824 Y143.017 E10.06762
G1 X137.722 Y142.942 E10.07184
G1 X137.488 Y142.742 E10.08209
G1 X137.353 Y142.508 E10.09109
G1 X137.263 Y142.352 E10.09682
G1 X137.137 Y142.134 E10.10408
G1 X137.016 Y141.924 E10.11053
G1 X136.886 Y141.699 E10.11719
G1 X136.753 Y141.469 E10.12413
G1 X136.62 Y141.238 E10.1318
G1 X136.503 Y141.036 E10.13913
G1 X136.372 Y140.809 E10.14786
G1 X136.346 Y140.695 E10.15175
G1 X136.308 Y140.453 E10.15991
